client/public/assets/icons/standard/coaching.svg

<?xml version="1.0"?><svg xmlns="http://www.w3.org/2000/svg" width="100" height="100" viewBox="0 0 100 100"><path fill="#fff" d="m47 53c-1.3 0-2.6 0.5-3.5 1.5-1.9 1.9-1.9 5.1 0 7.1 0.9 0.9 2.2 1.5 3.5 1.5 1.3 0 2.6-0.5 3.5-1.5 1.9-1.9 1.9-5.1 0-7.1-0.9-1-2.2-1.5-3.5-1.5z m32.6-22.4l-6.8-9.8c-0.6-0.9-1.8-1.1-2.7-0.6l-33.4 20.7c-3.2 1.9-6 4.7-7.8 8.9-1.8 4.3-2.2 8.9-1.1 13.2-4.3 0.4-7.8 4-7.8 8.5 0 4.7 3.8 8.5 8.5 8.5 3.5 0 6.5-2.1 7.8-5.1 7.7 4.9 18.1 4 24.9-2.8 6.1-6.1 7.4-15.2 4-22.7-1.2-2.6-0.5-5.8 1.9-7.5l12.1-8.6c0.8-0.5 1-1.8 0.4-2.7z m-51.1 43.4c-1.4 0-2.5-1.1-2.5-2.5s1.1-2.5 2.5-2.5 2.5 1.1 2.5 2.5-1.1 2.5-2.5 2.5z m26.3-8.2c-2.1 2.1-4.9 3.2-7.8 3.2-2.9 0-5.7-1.1-7.8-3.2-4.3-4.3-4.3-11.3 0-15.6 2.1-2.1 4.8-3.2 7.8-3.2 2.9 0 5.7 1.1 7.8 3.2 4.3 4.3 4.3 11.3 0 15.6z"></path></svg>

<?xml version="1.0" encoding="utf-8"?>
<!-- Generator: Adobe Illustrator 17.1.0, SVG Export Plug-In . SVG Version: 6.00 Build 0)  -->
<!DOCTYPE svg PUBLIC "-//W3C//DTD SVG 1.1//EN" "http://www.w3.org/Graphics/SVG/1.1/DTD/svg11.dtd">
<svg version="1.1" id="Layer_1" xmlns="http://www.w3.org/2000/svg" xmlns:xlink="http://www.w3.org/1999/xlink" x="0px" y="0px" width="100" height="100"
	 viewBox="0 0 100 100" style="enable-background:new 0 0 100 100;" xml:space="preserve">

<g>
	<g>
		<path fill="#FFFFFF" d="M47,53c-1.3,0-2.6,0.5-3.5,1.5c-1.9,1.9-1.9,5.1,0,7.1c0.9,0.9,2.2,1.5,3.5,1.5c1.3,0,2.6-0.5,3.5-1.5
			c1.9-1.9,1.9-5.1,0-7.1C49.6,53.5,48.3,53,47,53z"/>
	</g>
	<g>
		<path fill="#FFFFFF" d="M79.6,30.6l-6.8-9.8c-0.6-0.9-1.8-1.1-2.7-0.6L36.7,40.9l0,0c-3.2,1.9-6,4.7-7.8,8.9
			c-1.8,4.3-2.2,8.9-1.1,13.2c-4.3,0.4-7.8,4-7.8,8.5c0,4.7,3.8,8.5,8.5,8.5c3.5,0,6.5-2.1,7.8-5.1c7.7,4.9,18.1,4,24.9-2.8
			c6.1-6.1,7.4-15.2,4-22.7c-1.2-2.6-0.5-5.8,1.9-7.5l12.1-8.6C80,32.8,80.2,31.5,79.6,30.6z M28.5,74c-1.4,0-2.5-1.1-2.5-2.5
			s1.1-2.5,2.5-2.5s2.5,1.1,2.5,2.5S29.9,74,28.5,74z M54.8,65.8C52.7,67.9,49.9,69,47,69c-2.9,0-5.7-1.1-7.8-3.2
			c-4.3-4.3-4.3-11.3,0-15.6c2.1-2.1,4.8-3.2,7.8-3.2c2.9,0,5.7,1.1,7.8,3.2C59.1,54.5,59.1,61.5,54.8,65.8z"/>
	</g>
</g>
</svg>
